!! 00026] TT[TB
!! Eigene Aufnahme, Guangzhou, 5.5.87
!!!OTL: Si ji ge
!!!ARE: Asia, China,ˇnan Jiangsu
!! Ethnic Group: Han
!! MM,    S. 157, Quelle S. Bandprotokoll)
!!!SCT: C0954
!!!YEM: Copyright 1995, estate of Helmut Schaffrath.
**kern
*ICvox
*Ivox
*M2/4
*k[f#c#g#]
*A:
{8cc#
8b
8cc#
8ee
=1
8a
8f#
8ee
8cc#
=2
4.b
16cc#
16b}
=3
{8a
16a
16f#
8a
8b
=4
8a
8f#
8e
8c#
=5
2e}
=6
{4f#
8a
8e
=7
8.f#
16a
8b
8cc#
=8
8b
8a
8f#
8e
=9
2f#}
=10
{8.f#
16a
8b
8cc#
=11
8b
8a
8f#
8e
=12
8.c#
16e
8a
8f#
=13
2e}
==
!!!AGN: Xiaodiao, Shidiao, Kuqiqi, MengjiangnÅ diao. Siji sixiang
!! Die Saengerin Lei Huilan ist Angehoerige der Zhuang Minderheit und
!!    studiert an der Guangzhouer Musikhochschule.
!!    Aufgenommen am 5.5.87    cf. Nr. 121
!!!ONB: ESAC (Essen Associative Code) Database: CHINA
!!!AMT: simple duple
!!!AIN: vox
!!!EED: Helmut Schaffrath
!!!EEV: 1.0
*-
